icons/columns-16.svg

<svg width="16" height="16" viewBox="0 0 16 16" fill="none" xmlns="http://www.w3.org/2000/svg">
<path fill-rule="evenodd" clip-rule="evenodd" d="M1.75 0C0.783502 0 0 0.783501 0 1.75V14.25C0 15.2165 0.783502 16 1.75 16H5.75C6.7165 16 7.5 15.2165 7.5 14.25V1.75C7.5 0.783502 6.7165 0 5.75 0H1.75ZM1.5 1.75C1.5 1.61193 1.61193 1.5 1.75 1.5H5.75C5.88807 1.5 6 1.61193 6 1.75V14.25C6 14.3881 5.88807 14.5 5.75 14.5H1.75C1.61193 14.5 1.5 14.3881 1.5 14.25V1.75Z" fill="black"/>
<path fill-rule="evenodd" clip-rule="evenodd" d="M10.25 0C9.2835 0 8.5 0.783501 8.5 1.75V14.25C8.5 15.2165 9.2835 16 10.25 16H14.25C15.2165 16 16 15.2165 16 14.25V1.75C16 0.783502 15.2165 0 14.25 0H10.25ZM10 1.75C10 1.61193 10.1119 1.5 10.25 1.5H14.25C14.3881 1.5 14.5 1.61193 14.5 1.75V14.25C14.5 14.3881 14.3881 14.5 14.25 14.5H10.25C10.1119 14.5 10 14.3881 10 14.25V1.75Z" fill="black"/>
</svg>

<svg xmlns="http://www.w3.org/2000/svg" width="16" height="16" viewBox="0 0 16 16"><path fill-rule="evenodd" d="M1.75 0A1.75 1.75 0 000 1.75v12.5C0 15.216.784 16 1.75 16h4a1.75 1.75 0 001.75-1.75V1.75A1.75 1.75 0 005.75 0h-4zM1.5 1.75a.25.25 0 01.25-.25h4a.25.25 0 01.25.25v12.5a.25.25 0 01-.25.25h-4a.25.25 0 01-.25-.25V1.75zM10.25 0A1.75 1.75 0 008.5 1.75v12.5c0 .966.784 1.75 1.75 1.75h4A1.75 1.75 0 0016 14.25V1.75A1.75 1.75 0 0014.25 0h-4zM10 1.75a.25.25 0 01.25-.25h4a.25.25 0 01.25.25v12.5a.25.25 0 01-.25.25h-4a.25.25 0 01-.25-.25V1.75z"/></svg>
